X:1
T:Title
%%score { ( 1 2 ) | ( 3 4 ) }
L:1/8
Q:1/4=68
M:6/8
K:G
V:1 treble nm="Grand Piano"
V:2 treble 
V:3 bass 
V:4 bass 
V:1
 [DGB]2 [DGB] [GB]AG | dc[DGB] [DFA]3 | [CA]c[^DB] AGG | GF[G,^CE] z =CD | .D3[K:bass] .D3 | %5
w: J.~E.~Gould * * * *|||||
 .[DF]2 [B,G] [A,F]3 | [Ec][G,CE][A,DF] [G,DG][Gd][EGc] | B-[EB][CFA] .[B,DG]3 |] %8
w: |||
V:2
 z3 .D3 | x6 | .E3 z3 | z3 .D3 | z[K:bass] F,D z A,[G,D] | x6 | x6 | .[DG]3 z3 |] %8
V:3
 G,F,E, D,[K:treble][CF][B,D] | [A,DF]2[K:bass] G, D,3 | z A,[B,,F,] B,[B,E][E,B,D] | %3
 [A,^C]-[A,,A,C]A,, [D,F,A,][E,G,][F,A,] | .[G,B,]2 [E,B,] [D,B,]C,B,, | z CG,, D,3 | %6
 [A,,A,]C,C, z =FC, | z CD, .G,,3 |] %8
V:4
 x4[K:treble] x2 | x2[K:bass] x4 | .A,,3 .E,3 | .E,3 z3 | x6 | .A,,3 z3 | z3 .B,,3 | .D,3 z3 |] %8

